htdocs/assets/fonts/icomoon.svg

<?xml version="1.0" standalone="no"?>
<!DOCTYPE svg PUBLIC "-//W3C//DTD SVG 1.1//EN" "http://www.w3.org/Graphics/SVG/1.1/DTD/svg11.dtd" >
<svg xmlns="http://www.w3.org/2000/svg">
<metadata>Generated by IcoMoon</metadata>
<defs>
<font id="icomoon" horiz-adv-x="1024">
<font-face units-per-em="1024" ascent="960" descent="-64" />
<missing-glyph horiz-adv-x="1024" />
<glyph unicode="&#x20;" horiz-adv-x="512" d="" />
<glyph unicode="&#xe900;" glyph-name="sun" d="M512 682.667c-140.8 0-256-115.2-256-256s115.2-256 256-256 256 115.2 256 256-115.2 256-256 256zM512 256c-93.867 0-170.667 76.8-170.667 170.667s76.8 170.667 170.667 170.667c93.867 0 170.667-76.8 170.667-170.667s-76.8-170.667-170.667-170.667zM512 768c25.6 0 42.667 17.067 42.667 42.667v85.333c0 25.6-17.067 42.667-42.667 42.667s-42.667-17.067-42.667-42.667v-85.333c0-25.6 17.067-42.667 42.667-42.667zM512 85.334c-25.6 0-42.667-17.067-42.667-42.667v-85.333c0-25.6 17.067-42.667 42.667-42.667s42.667 17.067 42.667 42.667v85.333c0 25.6-17.067 42.667-42.667 42.667zM209.067 669.867c8.533-8.533 21.333-12.8 29.867-12.8s21.333 4.267 29.867 12.8c17.067 17.067 17.067 42.667 0 59.733l-59.733 59.733c-17.067 17.067-42.667 17.067-59.733 0s-17.067-42.667 0-59.733l59.733-59.733zM814.933 183.467c-17.067 17.067-42.667 17.067-59.733 0s-17.067-42.667 0-59.733l59.733-59.733c8.533-8.533 21.333-12.8 29.867-12.8s21.333 4.267 29.867 12.8c17.067 17.067 17.067 42.667 0 59.733l-59.733 59.733zM170.667 426.667c0 25.6-17.067 42.667-42.667 42.667h-85.333c-25.6 0-42.667-17.067-42.667-42.667s17.067-42.667 42.667-42.667h85.333c25.6 0 42.667 17.067 42.667 42.667zM981.333 469.334h-85.333c-25.6 0-42.667-17.067-42.667-42.667s17.067-42.667 42.667-42.667h85.333c25.6 0 42.667 17.067 42.667 42.667s-17.067 42.667-42.667 42.667zM209.067 183.467l-59.733-59.733c-17.067-17.067-17.067-42.667 0-59.733 8.533-8.533 21.333-12.8 29.867-12.8s21.333 4.267 29.867 12.8l59.733 59.733c17.067 17.067 17.067 42.667 0 59.733s-42.667 17.067-59.733 0zM785.067 657.067c12.8 0 21.333 4.267 29.867 12.8l59.733 59.733c17.067 17.067 17.067 42.667 0 59.733s-42.667 17.067-59.733 0l-59.733-59.733c-17.067-17.067-17.067-42.667 0-59.733 4.267-8.533 17.067-12.8 29.867-12.8z" />
<glyph unicode="&#xe901;" glyph-name="moon" d="M917.333 430.934c-12.8 8.533-34.133 8.533-46.933-4.267-89.6-68.267-213.333-68.267-302.933 0-115.2 85.333-140.8 243.2-55.467 358.4 8.533 12.8 12.8 29.867 4.267 46.933-8.533 12.8-25.6 21.333-42.667 21.333-204.8-17.067-366.933-179.2-384-384-21.333-234.667 149.333-443.733 384-465.067 12.8 0 25.6 0 38.4 0 98.133 0 196.267 34.133 273.067 98.133 89.6 72.533 140.8 174.933 153.6 290.133 0 12.8-8.533 29.867-21.333 38.4zM733.867 166.4c-68.267-59.733-157.867-85.333-247.467-76.8-187.733 17.067-324.267 183.467-307.2 371.2 12.8 132.267 102.4 247.467 221.867 290.133-51.2-136.533-4.267-298.667 119.467-392.533 93.867-68.267 213.333-85.333 320-46.933-25.6-55.467-59.733-106.667-106.667-145.067z" />
<glyph unicode="&#xe902;" glyph-name="menu" d="M896 469.334h-768c-25.6 0-42.667-17.067-42.667-42.667s17.067-42.667 42.667-42.667h768c25.6 0 42.667 17.067 42.667 42.667s-17.067 42.667-42.667 42.667zM128 640h768c25.6 0 42.667 17.067 42.667 42.667s-17.067 42.667-42.667 42.667h-768c-25.6 0-42.667-17.067-42.667-42.667s17.067-42.667 42.667-42.667zM896 213.334h-768c-25.6 0-42.667-17.067-42.667-42.667s17.067-42.667 42.667-42.667h768c25.6 0 42.667 17.067 42.667 42.667s-17.067 42.667-42.667 42.667z" />
</font></defs></svg>

<svg xmlns="http://www.w3.org/2000/svg"><defs><font id="icomoon" horiz-adv-x="1024"><font-face units-per-em="1024" ascent="960" descent="-64"/><glyph horiz-adv-x="512"/><glyph unicode="" glyph-name="sun" d="M512 682.667c-140.8 0-256-115.2-256-256s115.2-256 256-256 256 115.2 256 256-115.2 256-256 256zM512 256c-93.867 0-170.667 76.8-170.667 170.667S418.133 597.334 512 597.334s170.667-76.8 170.667-170.667S605.867 256 512 256zm0 512c25.6 0 42.667 17.067 42.667 42.667V896c0 25.6-17.067 42.667-42.667 42.667S469.333 921.6 469.333 896v-85.333C469.333 785.067 486.4 768 512 768zm0-682.666c-25.6 0-42.667-17.067-42.667-42.667v-85.333c0-25.6 17.067-42.667 42.667-42.667s42.667 17.067 42.667 42.667v85.333c0 25.6-17.067 42.667-42.667 42.667zM209.067 669.867c8.533-8.533 21.333-12.8 29.867-12.8s21.333 4.267 29.867 12.8c17.067 17.067 17.067 42.667 0 59.733l-59.733 59.733c-17.067 17.067-42.667 17.067-59.733 0s-17.067-42.667 0-59.733l59.733-59.733zm605.866-486.4c-17.067 17.067-42.667 17.067-59.733 0s-17.067-42.667 0-59.733l59.733-59.733c8.533-8.533 21.333-12.8 29.867-12.8s21.333 4.267 29.867 12.8c17.067 17.067 17.067 42.667 0 59.733l-59.733 59.733zm-644.266 243.2c0 25.6-17.067 42.667-42.667 42.667H42.667C17.067 469.334 0 452.267 0 426.667S17.067 384 42.667 384H128c25.6 0 42.667 17.067 42.667 42.667zm810.666 42.667H896c-25.6 0-42.667-17.067-42.667-42.667S870.4 384 896 384h85.333c25.6 0 42.667 17.067 42.667 42.667s-17.067 42.667-42.667 42.667zM209.067 183.467l-59.733-59.733c-17.067-17.067-17.067-42.667 0-59.733 8.533-8.533 21.333-12.8 29.867-12.8s21.333 4.267 29.867 12.8l59.733 59.733c17.067 17.067 17.067 42.667 0 59.733s-42.667 17.067-59.733 0zm576 473.6c12.8 0 21.333 4.267 29.867 12.8l59.733 59.733c17.067 17.067 17.067 42.667 0 59.733s-42.667 17.067-59.733 0L755.201 729.6c-17.067-17.067-17.067-42.667 0-59.733 4.267-8.533 17.067-12.8 29.867-12.8z"/><glyph unicode="" glyph-name="moon" d="M917.333 430.934c-12.8 8.533-34.133 8.533-46.933-4.267-89.6-68.267-213.333-68.267-302.933 0-115.2 85.333-140.8 243.2-55.467 358.4 8.533 12.8 12.8 29.867 4.267 46.933-8.533 12.8-25.6 21.333-42.667 21.333-204.8-17.067-366.933-179.2-384-384C68.267 234.666 238.933 25.6 473.6 4.266H512c98.133 0 196.267 34.133 273.067 98.133 89.6 72.533 140.8 174.933 153.6 290.133 0 12.8-8.533 29.867-21.333 38.4zM733.867 166.4C665.6 106.667 576 81.067 486.4 89.6c-187.733 17.067-324.267 183.467-307.2 371.2C192 593.067 281.6 708.267 401.067 750.933 349.867 614.4 396.8 452.266 520.534 358.4c93.867-68.267 213.333-85.333 320-46.933C814.934 256 780.801 204.8 733.867 166.4z"/><glyph unicode="" glyph-name="menu" d="M896 469.334H128c-25.6 0-42.667-17.067-42.667-42.667S102.4 384 128 384h768c25.6 0 42.667 17.067 42.667 42.667S921.6 469.334 896 469.334zM128 640h768c25.6 0 42.667 17.067 42.667 42.667S921.6 725.334 896 725.334H128c-25.6 0-42.667-17.067-42.667-42.667S102.4 640 128 640zm768-426.666H128c-25.6 0-42.667-17.067-42.667-42.667S102.4 128 128 128h768c25.6 0 42.667 17.067 42.667 42.667S921.6 213.334 896 213.334z"/></font></defs></svg>
